16x16/devices/battery.svg

<svg height="16" width="16" xmlns="http://www.w3.org/2000/svg"><path d="m6 1v1h4v-1zm-2.156 2c-.281.047-.844.25-.844 1v10c0 1 1 1 1 1h8c1 0 1-1 1-1v-10s0-1-1-1h-8s-.063-.016-.156 0zm.156 1h8v10h-8zm1 1v8h6v-8z" fill="#8b9cbe"/></svg>

<svg height="16" width="16" xmlns="http://www.w3.org/2000/svg">
    <path d="M6 1v1h4V1zM3.844 3C3.563 3.047 3 3.25 3 4v10c0 1 1 1 1 1h8c1 0 1-1 1-1V4s0-1-1-1H4s-.063-.016-.156 0zM4 4h8v10H4zm1 1v8h6V5z" fill="#f4f4f7"/>
</svg>
